X:3001
T:Ca the Yowes to the Knowes
R:Air
C:Robert Burns 1794
O:Scotland
Z:Paul Hardy's Possible Tunebook 2015 (see www.paulhardy.net). Creative Commons cc by-nc-sa licenced.
M:2/2
L:1/4
Q:1/2=50
K:Bmin
|"Em"E>F "Bm"B2|"D"A>F A2|"Bm"F>E D>d|"A"c<d e2|"Bm"f>B B>B|"D"A<d F2|"A"E2 F>A|"Bm"B2 B|]

